!!!OTL: 102. Kettenspiel.
!!!ARE: Europa, Mitteleuropa, Deutschland, Rheinland, Laubenheim
!!!SCT: K2102
!!!TXL: @@DE
!!!YEM: Copyright 1995, estate of Helmut Schaffrath.
**kern	**text
*clefG2	*
*M4/4	*
*met(c)	*
*k[b-]	*
*F:	*
{4f	Wir
=1	=1
4f	tra-
4a	-ten
4cc	auf
4dd	die
=2	=2
2cc	Ket-
4a	-te,
4r}	.
=3	=3
{4cc	daß
4b-	die
4a	Ket-
4g	-te
=4	=4
2f	klang.
4r}	.
{4f	Es
=5	=5
4f	war
4a	ein
4cc	ſchö-
4dd	-ner
=6	=6
2cc	Vo-
4a	-gel,
4r}	.
=7	=7
{4cc	der
4b-	ſo
4a	lieb-
4g	-lich
=8	=8
2f	ſang.
4r}	.
{4cc	Er
=9	=9
4cc	ſang
4b-	ſo
4a	klar
4r	.
=10	=10
4cc	wie
4b-	ein
4a	Haar,
4r}	.
=11	=11
{4cc	hat
4cc	ge-
4dd	-ſun-
4dd	-gen
=12	=12
4cc	ſie-
4b-	-ben
2a}	Jahr,
=13	=13
{4cc	Sie-
4cc	-ben
4cc	Jahr
4a	ſind
=14	=14
2ff	um:
4r}	.
{8cc	Fräu-
8cc	-lein
=15	=15
4cc	Lies-
4a	-chen
4cc	dreht
4cc	ſich
=16	=16
2f	um!
4r}	.
==	==
!!!AGN: Kinder - Lied, Reigen, Tanz - Spiel
!!!ONB: ESAC (Essen Associative Code) Database: KINDER
!!!AMT: simple quadruple
!!!AIN: vox
!!!EED: Helmut Schaffrath
!!!EEV: 1.0
!!Rheinland (Laubenheim, Langenlonsheim) 1896.
!!!GTL: Zweites Buch. Kinderspiel: 2. Reigen und Tanzspiele. / B. Ringeltanz mit Umkehr des Kreises.
!!!URL-scan: https://archive.org/details/DeutschesKinderliedUndKinderspiel/page/450/mode/1up
!!!ENC: Anna Maria Matuszewska
!!!EEV: 2024/03/09
*-	*-
